src/static/logos/helpscout.svg

<?xml version="1.0" encoding="UTF-8" standalone="no"?>
<svg width="256px" height="231px" viewBox="0 0 256 231" version="1.1" xmlns="http://www.w3.org/2000/svg" xmlns:xlink="http://www.w3.org/1999/xlink" preserveAspectRatio="xMidYMid">
    <g>
        <path d="M218.468271,148.03688 C218.468271,148.03688 214.547046,152.51828 209.50547,157.559856 C220.708972,143.555479 226.310722,129.551103 229.111597,116.106902 C234.713348,116.106902 252.63895,114.986552 252.63895,92.5795493 C252.63895,92.5795493 250.958425,69.052197 253.7593,65.6911467 C253.7593,65.6911467 233.032823,67.9318469 230.231947,102.6627 C230.231947,89.7786741 227.431072,78.0149979 222.949672,66.8114968 C227.431072,64.5707966 244.236324,55.0478207 230.231947,31.5204684 C230.231947,31.5204684 226.310722,25.3585428 226.870897,20.3169673 C226.870897,20.3169673 209.50547,30.9602933 215.107221,47.765545 C215.107221,47.765545 217.347921,52.2469454 220.148796,59.5292211 C213.986871,47.765545 206.704595,37.682394 199.422319,29.2797682 C199.422319,24.7983677 196.061269,-6.57143534 151.80744,1.27101543 C151.80744,1.27101543 158.52954,37.1222189 197.741794,30.4001183 C204.463895,38.8027441 210.625821,48.32572 215.667396,59.5292211 C208.945295,48.8858951 195.501094,33.2009935 175.894967,45.5248447 C175.894967,45.5248447 182.056893,49.4460701 187.658643,62.3300964 C187.658643,62.3300964 193.260394,76.8946478 219.028446,68.492022 C222.949672,79.6955231 225.190372,91.4591992 224.070022,104.343225 C222.949672,97.0609498 216.787746,73.5335975 191.579869,83.0565734 C191.579869,83.0565734 195.501094,88.658324 197.181619,98.7414749 C197.181619,98.7414749 202.223195,115.546727 222.389497,114.426376 C219.588621,126.190053 214.547046,139.074079 205.02407,151.39793 C208.945295,141.314779 212.306346,121.708652 188.778993,114.426376 C188.778993,114.426376 190.459519,120.588302 185.978118,127.870578 C185.978118,127.870578 175.334792,145.236004 194.940919,163.161606 C187.658643,171.004057 178.135667,179.406683 167.492341,187.249134 C173.094092,179.966858 178.135667,166.522657 169.172867,147.476705 C169.172867,147.476705 169.733042,152.51828 161.330416,155.319155 C161.330416,155.319155 134.442013,163.721781 151.247265,198.452635 C146.205689,201.25351 138.923414,205.174735 128.280088,209.656136 C117.636761,205.73491 110.354486,201.813685 105.31291,198.452635 C122.118162,163.721781 95.2297593,155.319155 95.2297593,155.319155 C86.8271335,152.51828 87.3873085,147.476705 87.3873085,147.476705 C78.4245077,166.522657 83.4660832,179.966858 89.0678337,187.249134 C77.8643326,179.406683 68.9015317,171.004057 61.619256,163.161606 C80.6652079,145.236004 70.5820569,127.870578 70.5820569,127.870578 C66.1006565,120.588302 67.7811816,114.426376 67.7811816,114.426376 C44.2538293,122.268827 47.6148796,141.314779 51.536105,151.39793 C42.0131291,138.513904 36.4113786,126.190053 34.1706783,114.426376 C54.3369803,114.986552 59.3785558,98.7414749 59.3785558,98.7414749 C61.059081,88.658324 64.9803063,83.0565734 64.9803063,83.0565734 C39.7724289,73.5335975 33.6105033,97.0609498 32.4901532,104.343225 C31.3698031,91.4591992 33.6105033,79.6955231 37.5317287,68.492022 C63.2997812,76.8946478 68.9015317,62.3300964 68.9015317,62.3300964 C75.0634573,49.4460701 80.6652079,45.5248447 80.6652079,45.5248447 C61.059081,33.2009935 47.6148796,48.8858951 40.892779,59.5292211 C45.9343545,48.32572 52.6564551,38.8027441 58.8183807,30.4001183 C98.0306346,37.682394 104.752735,1.27101543 104.752735,1.27101543 C61.059081,-6.57143534 57.6980306,24.2381927 57.1378556,29.2797682 C49.8555799,37.682394 42.0131291,47.765545 36.4113786,59.5292211 C38.6520788,52.2469454 40.892779,47.765545 40.892779,47.765545 C46.4945295,30.9602933 29.1291028,20.3169673 29.1291028,20.3169673 C29.6892779,25.3585428 25.7680525,31.5204684 25.7680525,31.5204684 C11.7636761,55.0478207 28.5689278,64.5707966 33.0503282,66.8114968 C28.5689278,77.4548229 25.7680525,89.7786741 25.7680525,102.102525 C22.4070022,67.3716719 2.24070022,65.1309717 2.24070022,65.1309717 C5.04157549,68.492022 3.36105033,92.0193743 3.36105033,92.0193743 C3.92122538,114.426376 21.2866521,115.546727 26.8884026,115.546727 C29.1291028,128.990928 35.2910284,142.435129 46.4945295,156.999681 C41.452954,151.958105 37.5317287,147.476705 37.5317287,147.476705 C20.726477,127.310403 0,127.310403 0,127.310403 C2.80087527,132.351978 4.48140044,142.435129 4.48140044,142.435129 C7.84245077,159.240381 19.0459519,167.082832 19.0459519,167.082832 C31.3698031,177.726158 50.97593,169.323532 55.4573304,167.082832 C63.2997812,175.485457 73.3829322,183.888083 85.1466083,192.850884 C77.3041575,190.050009 60.4989059,180.527033 51.536105,185.008433 C50.97593,185.008433 39.2122538,190.610184 23.5273523,186.128783 C23.5273523,186.128783 47.6148796,224.780862 99.1509847,205.73491 C104.752735,209.095961 110.914661,211.896836 117.076586,214.697711 C104.752735,218.618937 89.0678337,222.540162 69.4617068,225.901212 L76.1838074,230.382613 C85.7067834,228.702088 106.993435,225.341037 127.159737,218.618937 C147.886214,225.341037 168.612691,228.702088 178.135667,230.382613 L184.857768,225.901212 C165.251641,222.540162 149.56674,218.618937 137.242888,214.697711 C143.404814,212.457011 149.56674,209.095961 155.16849,205.73491 C207.26477,225.341037 231.352298,186.128783 231.352298,186.128783 C215.667396,190.610184 203.90372,185.008433 203.343545,185.008433 C194.380744,180.527033 177.575492,189.489834 170.853392,193.411059 C182.617068,185.008433 192.700219,176.045632 200.54267,167.643007 C205.584245,169.883707 224.630197,178.286333 236.954048,167.643007 C236.954048,167.643007 247.597374,159.240381 251.5186,142.995304 C251.5186,142.995304 253.199125,132.912153 256,127.870578 C256,127.870578 235.273523,127.870578 218.468271,148.03688 L218.468271,148.03688 Z" fill="#1D547D"></path>
    </g>
</svg>

<svg width="256" height="231" xmlns="http://www.w3.org/2000/svg" preserveAspectRatio="xMidYMid"><path d="M218.468 148.037s-3.921 4.481-8.963 9.523c11.204-14.005 16.806-28.009 19.607-41.453 5.601 0 23.527-1.12 23.527-23.527 0 0-1.68-23.528 1.12-26.889 0 0-20.726 2.24-23.527 36.972 0-12.884-2.8-24.648-7.282-35.852 4.481-2.24 21.286-11.763 7.282-35.29 0 0-3.921-6.162-3.361-11.204 0 0-17.366 10.643-11.764 27.449 0 0 2.24 4.48 5.042 11.763-6.162-11.763-13.444-21.847-20.727-30.25 0-4.48-3.36-35.85-47.615-28.008 0 0 6.723 35.851 45.935 29.13 6.722 8.402 12.884 17.925 17.925 29.128-6.722-10.643-20.166-26.328-39.772-14.004 0 0 6.162 3.921 11.764 16.805 0 0 5.601 14.565 31.37 6.162 3.92 11.204 6.161 22.967 5.041 35.851-1.12-7.282-7.282-30.81-32.49-21.286 0 0 3.921 5.601 5.602 15.684 0 0 5.041 16.806 25.207 15.685-2.8 11.764-7.842 24.648-17.365 36.972 3.921-10.083 7.282-29.69-16.245-36.972 0 0 1.68 6.162-2.8 13.445 0 0-10.644 17.365 8.962 35.29-7.282 7.843-16.805 16.246-27.449 24.088 5.602-7.282 10.644-20.726 1.68-39.772 0 0 .561 5.041-7.842 7.842 0 0-26.888 8.403-10.083 43.134-5.041 2.8-12.324 6.722-22.967 11.203-10.643-3.921-17.926-7.842-22.967-11.203 16.805-34.731-10.083-43.134-10.083-43.134-8.403-2.8-7.843-7.842-7.843-7.842-8.962 19.046-3.92 32.49 1.68 39.772-11.203-7.842-20.165-16.245-27.448-24.087 19.046-17.926 8.963-35.291 8.963-35.291-4.481-7.283-2.8-13.445-2.8-13.445-23.528 7.843-20.167 26.889-16.246 36.972-9.523-12.884-15.125-25.208-17.365-36.972 20.166.56 25.208-15.685 25.208-15.685 1.68-10.083 5.601-15.684 5.601-15.684-25.208-9.523-31.37 14.004-32.49 21.286-1.12-12.884 1.12-24.647 5.042-35.851 25.768 8.403 31.37-6.162 31.37-6.162 6.161-12.884 11.763-16.805 11.763-16.805-19.606-12.324-33.05 3.36-39.772 14.004C45.934 48.326 52.656 38.803 58.818 30.4c39.213 7.282 45.935-29.129 45.935-29.129C61.059-6.571 57.698 24.238 57.138 29.28c-7.282 8.402-15.125 18.486-20.727 30.25 2.241-7.283 4.482-11.764 4.482-11.764 5.602-16.806-11.764-27.449-11.764-27.449.56 5.042-3.36 11.203-3.36 11.203-14.005 23.528 2.8 33.05 7.281 35.291-4.481 10.644-7.282 22.968-7.282 35.292C22.407 67.372 2.241 65.13 2.241 65.13c2.8 3.361 1.12 26.888 1.12 26.888.56 22.407 17.926 23.528 23.527 23.528C29.13 128.99 35.291 142.435 46.495 157c-5.042-5.042-8.963-9.523-8.963-9.523C20.726 127.31 0 127.31 0 127.31c2.8 5.042 4.481 15.125 4.481 15.125 3.361 16.805 14.565 24.648 14.565 24.648 12.324 10.643 31.93 2.24 36.411 0 7.843 8.402 17.926 16.805 29.69 25.768-7.843-2.801-24.648-12.324-33.61-7.843-.561 0-12.325 5.602-28.01 1.12 0 0 24.088 38.653 75.624 19.607 5.602 3.361 11.764 6.162 17.926 8.963-12.324 3.92-28.01 7.842-47.615 11.203l6.722 4.482c9.523-1.68 30.81-5.042 50.976-11.764 20.726 6.722 41.453 10.083 50.976 11.764l6.722-4.482c-19.606-3.36-35.291-7.282-47.615-11.203 6.162-2.241 12.324-5.602 17.925-8.963 52.097 19.606 76.184-19.606 76.184-19.606-15.685 4.481-27.448-1.12-28.008-1.12-8.963-4.482-25.769 4.48-32.49 8.402 11.763-8.403 21.846-17.365 29.689-25.768 5.041 2.24 24.087 10.643 36.411 0 0 0 10.643-8.403 14.565-24.648 0 0 1.68-10.083 4.481-15.124 0 0-20.726 0-37.532 20.166z" fill="#1D547D"/></svg>
